alecto/img/svg/card.svg

<svg xmlns="http://www.w3.org/2000/svg" width="19" height="18"><path d="M18.851 5.206l-3.257 7.313c-.258.579-.824.98-1.48.98H3.8c-.899 0-1.629-.755-1.629-1.687V3.443L.239 1.44A.856.856 0 010 .843C0 .377.364 0 .814 0c.225 0 .429.094.576.247l2.476 2.565h13.505c.9 0 1.629.755 1.629 1.688 0 .252-.053.491-.149.706zM3.8 11.812h10.314l2.005-4.5H3.8v4.5zM17.371 4.5H3.8v1.125h13.071l.502-1.126-.002.001zM4.343 14.625c.899 0 1.628.755 1.628 1.687 0 .933-.729 1.688-1.628 1.688-.899 0-1.629-.755-1.629-1.688 0-.932.73-1.687 1.629-1.687zm8.686 0c.899 0 1.628.755 1.628 1.687 0 .933-.729 1.688-1.628 1.688-.899 0-1.629-.755-1.629-1.688 0-.932.73-1.687 1.629-1.687z"/></svg>

<svg 
 xmlns="http://www.w3.org/2000/svg"
 xmlns:xlink="http://www.w3.org/1999/xlink"
 width="19px" height="18px">
<path
 d="M18.851,5.206 L15.594,12.519 C15.336,13.098 14.770,13.499 14.114,13.499 L3.800,13.499 C2.901,13.499 2.171,12.744 2.171,11.812 L2.171,3.443 L0.239,1.440 C0.091,1.287 0.000,1.076 0.000,0.843 C0.000,0.377 0.364,-0.000 0.814,-0.000 C1.039,-0.000 1.243,0.094 1.390,0.247 L3.866,2.812 L17.371,2.812 C18.271,2.812 19.000,3.567 19.000,4.500 C19.000,4.752 18.947,4.991 18.851,5.206 ZM3.800,11.812 L14.114,11.812 L16.119,7.312 L3.800,7.312 L3.800,11.812 ZM17.371,4.500 L3.800,4.500 L3.800,5.625 L16.871,5.625 L17.373,4.499 L17.371,4.500 ZM4.343,14.625 C5.242,14.625 5.971,15.380 5.971,16.312 C5.971,17.245 5.242,18.000 4.343,18.000 C3.444,18.000 2.714,17.245 2.714,16.312 C2.714,15.380 3.444,14.625 4.343,14.625 ZM13.029,14.625 C13.928,14.625 14.657,15.380 14.657,16.312 C14.657,17.245 13.928,18.000 13.029,18.000 C12.130,18.000 11.400,17.245 11.400,16.312 C11.400,15.380 12.130,14.625 13.029,14.625 Z"/>
</svg>
